pic/toys/magnet.svg

<?xml version="1.0" encoding="UTF-8" standalone="no"?>
<!-- Generator: Adobe Illustrator 12.0.0, SVG Export Plug-In . SVG Version: 6.00 Build 51448)  --><svg height="120.754" id="Layer_1" inkscape:version="0.42" sodipodi:docbase="F:\openclip\svg da inviare" sodipodi:docname="calamita.svg" sodipodi:version="0.32" space="preserve" style="overflow:visible;enable-background:new 0 0 133.151 120.754;" version="1.1" viewBox="0 0 133.151 120.754" width="133.151" xmlns="http://www.w3.org/2000/svg" xmlns:cc="http://web.resource.org/cc/" xmlns:dc="http://purl.org/dc/elements/1.1/" xmlns:inkscape="http://www.inkscape.org/namespaces/inkscape" xmlns:rdf="http://www.w3.org/1999/02/22-rdf-syntax-ns#" xmlns:sodipodi="http://inkscape.sourceforge.net/DTD/sodipodi-0.dtd" xmlns:svg="http://www.w3.org/2000/svg">
  <metadata>
    <rdf:RDF xmlns:cc="http://web.resource.org/cc/" xmlns:dc="http://purl.org/dc/elements/1.1/" xmlns:rdf="http://www.w3.org/1999/02/22-rdf-syntax-ns#">
      <cc:Work rdf:about="">
        <dc:title>Calamita</dc:title>
        <dc:description></dc:description>
        <dc:subject>
          <rdf:Bag>
            <rdf:li>utensile</rdf:li>
          </rdf:Bag>
        </dc:subject>
        <dc:publisher>
          <cc:Agent rdf:about="http://www.openclipart.org/">
            <dc:title>Open Clip Art Library</dc:title>
          </cc:Agent>
        </dc:publisher>
        <dc:creator>
          <cc:Agent>
            <dc:title>Architetto Francesco Rollandin</dc:title>
          </cc:Agent>
        </dc:creator>
        <dc:rights>
          <cc:Agent>
            <dc:title>Architetto Francesco Rollandin</dc:title>
          </cc:Agent>
        </dc:rights>
        <dc:date></dc:date>
        <dc:format>image/svg+xml</dc:format>
        <dc:type rdf:resource="http://purl.org/dc/dcmitype/StillImage"/>
        <cc:license rdf:resource="http://web.resource.org/cc/PublicDomain"/>
        <dc:language>en</dc:language>
      </cc:Work>
      <cc:License rdf:about="http://web.resource.org/cc/PublicDomain">
        <cc:permits rdf:resource="http://web.resource.org/cc/Reproduction"/>
        <cc:permits rdf:resource="http://web.resource.org/cc/Distribution"/>
        <cc:permits rdf:resource="http://web.resource.org/cc/DerivativeWorks"/>
      </cc:License>
    </rdf:RDF>
  </metadata>
  <defs id="defs34"/>
  <sodipodi:namedview bordercolor="#666666" borderopacity="1.0" id="base" inkscape:current-layer="Layer_1" inkscape:cx="66.575500" inkscape:cy="60.376999" inkscape:pageopacity="0.0" inkscape:pageshadow="2" inkscape:window-height="510" inkscape:window-width="787" inkscape:window-x="44" inkscape:window-y="58" inkscape:zoom="2.9812678" pagecolor="#ffffff"/>
  <g id="g3">
    <radialGradient cx="39.7563" cy="24.2212" gradientTransform="matrix(-1 0 0 -1 140.3828 123.0322)" gradientUnits="userSpaceOnUse" id="XMLID_3_" r="120.088">
      <stop id="stop6" offset="0" style="stop-color:#E88080"/>
      <stop id="stop8" offset="0.6181" style="stop-color:#DE4848"/>
      <stop id="stop10" offset="1" style="stop-color:#D82A2A"/>
    </radialGradient>
    <path d="M67.697,119.816c34.942,0,61.557-25.644,64.317-60.226   c1.58-19.809-0.918-40.315-10.865-57.748c-2.611-1.459-10.149,0-13.112,0c-2.762,0-9.751-1.393-11.364,1.805   c-2.679,5.304,0.127,14.024,1.094,19.446c1.58,8.87,2.682,17.375,1.955,26.402c-1.055,13.087-5.894,24.534-19.752,27.513   c-11.812,2.534-29.275,2.516-38.254-6.962c-10.009-10.56-9.025-29.173-6.17-42.251c1.498-6.867,5.557-16.31,3.709-23.4   c-1.103-4.235-9.372-2.635-12.489-2.671C22.368,1.669,13.742-0.486,11.5,3.723C6.034,13.971,2.801,24.95,1.681,36.504   C-0.396,57.938,2.01,79.972,16.382,96.975C29.035,111.944,48.272,119.816,67.697,119.816" id="path12" style="fill:url(#XMLID_3_);"/>
    <path d="M131.271,37.805c-0.921-9.047-2.576-18.107-5.783-26.644c-0.451-1.198-3.217-9.319-4.482-9.319   c-1.821,0-3.643,0-5.464,0c-7.674,0-19.95-3.54-19.67,7.253c0.196,7.574,2.227,15.067,3.336,22.535   c0.972,6.537,0.015,6.175,6.214,6.175C114.038,37.805,122.655,37.805,131.271,37.805 M33.868,37.805   c0.879-9.923,4.827-19.351,5.59-29.268c0.528-6.865-2.948-6.692-8.424-6.762C24.963,1.7,18.893,1.625,12.819,1.546   c-1.897-0.021-5.837,12.645-6.427,14.433c-2.328,7.068-3.79,14.417-4.478,21.826C12.565,37.805,23.217,37.805,33.868,37.805" id="path14" style="fill:#E5E5E5;"/>
    <linearGradient gradientTransform="matrix(0 12.2047 12.2047 0 -7060.1382 3307.916)" gradientUnits="userSpaceOnUse" id="XMLID_4_" x1="-268.1382" x2="-266.2365" y1="583.9312" y2="583.9312">
      <stop id="stop17" offset="0" style="stop-color:#919191"/>
      <stop id="stop19" offset="0.0056" style="stop-color:#919191"/>
      <stop id="stop21" offset="1" style="stop-color:#BF0D00"/>
    </linearGradient>
    <path d="M133.151,52.608c0-10.226-0.443-20.501-2.961-30.46c-1.778-7.036-4.261-21.252-12.984-21.252   c-5.15,0-12.748-1.488-17.681,0C90.594,1.013,96.792,22.5,97.532,26.75c2.313,13.259,4.679,35.693-7.748,45.308   c-9.198,7.116-26.049,6.385-36.661,3.605c-14.101-3.694-17.855-16.999-18.438-30.15c-0.482-10.933,2.844-21.026,4.875-31.644   c0.629-3.289,1.903-8.387-0.223-11.428c-1.582-2.257-5.659-1.578-7.998-1.607c-3.758-0.05-17.574-2.428-19.856,1.079   c-5.478,8.402-8.478,19.782-9.991,29.59c-2.938,19.016-2.112,39.8,7.687,56.819c14.843,25.779,46.697,37.219,75.123,30.58   C115.229,111.681,133.151,83.363,133.151,52.608 M131.424,52.608c0,34.868-23.729,64.123-59.447,66.145   C37.28,120.713,6.675,96.957,2.45,62.03C-0.002,41.766,3.344,20.42,13.206,2.498c4.763,0.054,9.524,0.121,14.288,0.179   C33.251,2.75,39.301,1.041,38.56,8.881c-1.795,18.971-10.708,37.671-1.376,56.317c6.123,12.234,19.971,14.055,32.323,13.841   c11.007-0.192,22.358-2.571,27.422-13.456c7.411-15.931,2.739-34.001,0.395-50.421c-0.737-5.166-2.33-12.374,4.52-12.374   c5.683,0,11.365,0,17.051,0c5.063,0,8.566,15.372,9.658,19.741C131.011,32.358,131.424,42.52,131.424,52.608" id="path23" style="fill:url(#XMLID_4_);"/>
    <path d="M13.842,83.873c0,2.83,9.374,10.294,11.391,12.021c10.726,9.183,24.172,14.539,38.305,15.052   c14.944,0.539,29.649-3.849,42.247-11.796c4.328-2.729,8.4-5.854,12.21-9.27c0.515-0.461,3.912-4.399,4.675-4.179   c0.612,0.177-12.533,14.285-13.504,15.072c-12.204,9.93-27.383,15.891-43.197,15.891c-14.793,0-28.845-5.701-39.604-15.808   C22.872,97.576,13.842,89.375,13.842,83.873" id="path25" style="fill:#FFA3A3;"/>
    <path d="M34.692,64.009c0.196,2.275,6.695,7.454,8.483,8.884c8.192,6.55,18.279,8.777,28.609,7.948   c9.901-0.796,26.275-5.766,29.778-16.91c-3.592,11.425-14.2,19.624-25.682,21.923C60.802,88.869,36.327,82.854,34.692,64.009" id="path27" style="fill:#B20D0D;"/>
    <path d="M102.4,8.009c2.229-4.608,16.587,7.405,16.066,9.742c0.063-0.283-4.482-2.673-5.126-2.601   c-1.48,0.167,6.305,14.689,7.322,14.479c-3.646,0.757-11.687-5.402-13.663-8.28C105.285,18.854,100.835,11.261,102.4,8.009" id="path29" style="fill:#FFFFFF;"/>
    <path d="M19.027,34.021c-1.422-1.771-3.179-3.533-5.267-4.493c-4.374-2.012-3.681,2.63-6.319,3.368   c1.683-0.471,4.898-27.082,11.962-19.839C23.624,17.383,32.623,40.458,19.027,34.021" id="path31" style="fill:#FFFFFF;"/>
  </g>
</svg>

<?xml version="1.0" encoding="UTF-8" standalone="no"?>
<!-- Generator: Adobe Illustrator 12.0.0, SVG Export Plug-In . SVG Version: 6.00 Build 51448)  -->

<svg
   xmlns:dc="http://purl.org/dc/elements/1.1/"
   xmlns:cc="http://creativecommons.org/ns#"
   xmlns:rdf="http://www.w3.org/1999/02/22-rdf-syntax-ns#"
   xmlns:svg="http://www.w3.org/2000/svg"
   xmlns="http://www.w3.org/2000/svg"
   xmlns:sodipodi="http://sodipodi.sourceforge.net/DTD/sodipodi-0.dtd"
   xmlns:inkscape="http://www.inkscape.org/namespaces/inkscape"
   height="116.082"
   id="Layer_1"
   inkscape:version="0.92.2 (5c3e80d, 2017-08-06)"
   sodipodi:docname="magnet.svg"
   sodipodi:version="0.32"
   space="preserve"
   style="overflow:visible"
   version="1.1"
   viewBox="0 0 128.00044 116.082"
   width="128.00044">
  <title
     id="title831">Calamita</title>
  <metadata
     id="metadata2">
    <rdf:RDF>
      <cc:Work
         rdf:about="">
        <dc:title>Calamita</dc:title>
        <dc:description />
        <dc:subject>
          <rdf:Bag>
            <rdf:li>utensile</rdf:li>
          </rdf:Bag>
        </dc:subject>
        <dc:publisher>
          <cc:Agent
             rdf:about="http://www.openclipart.org/">
            <dc:title>Open Clip Art Library</dc:title>
          </cc:Agent>
        </dc:publisher>
        <dc:creator>
          <cc:Agent>
            <dc:title>Architetto Francesco Rollandin</dc:title>
          </cc:Agent>
        </dc:creator>
        <dc:rights>
          <cc:Agent>
            <dc:title>Architetto Francesco Rollandin</dc:title>
          </cc:Agent>
        </dc:rights>
        <dc:date />
        <dc:format>image/svg+xml</dc:format>
        <dc:type
           rdf:resource="http://purl.org/dc/dcmitype/StillImage" />
        <cc:license
           rdf:resource="http://creativecommons.org/publicdomain/zero/1.0/" />
        <dc:language>en</dc:language>
      </cc:Work>
      <cc:License
         rdf:about="http://creativecommons.org/publicdomain/zero/1.0/">
        <cc:permits
           rdf:resource="http://creativecommons.org/ns#Reproduction" />
        <cc:permits
           rdf:resource="http://creativecommons.org/ns#Distribution" />
        <cc:permits
           rdf:resource="http://creativecommons.org/ns#DerivativeWorks" />
      </cc:License>
    </rdf:RDF>
  </metadata>
  <defs
     id="defs34" />
  <sodipodi:namedview
     bordercolor="#666666"
     borderopacity="1.0"
     id="base"
     inkscape:current-layer="Layer_1"
     inkscape:cx="18.387954"
     inkscape:cy="86.630313"
     inkscape:pageopacity="0.0"
     inkscape:pageshadow="2"
     inkscape:window-height="1025"
     inkscape:window-width="1920"
     inkscape:window-x="-8"
     inkscape:window-y="-8"
     inkscape:zoom="4.2161494"
     pagecolor="#ffffff"
     showgrid="false"
     inkscape:window-maximized="1"
     fit-margin-top="0"
     fit-margin-left="0"
     fit-margin-right="0"
     fit-margin-bottom="0" />
  <g
     id="g3"
     transform="matrix(0.9613071,0,0,0.9613071,0.00143553,9.6360224e-6)">
    <radialGradient
       cx="39.756302"
       cy="24.221201"
       gradientTransform="rotate(180,70.1914,61.5161)"
       gradientUnits="userSpaceOnUse"
       id="XMLID_3_"
       r="120.088">
      <stop
         id="stop6"
         offset="0"
         style="stop-color:#E88080" />
      <stop
         id="stop8"
         offset="0.6181"
         style="stop-color:#DE4848" />
      <stop
         id="stop10"
         offset="1"
         style="stop-color:#D82A2A" />
    </radialGradient>
    <path
       d="m 67.697,119.816 c 34.942,0 61.557,-25.644 64.317,-60.226 1.58,-19.809 -0.918,-40.315 -10.865,-57.748 -2.611,-1.459 -10.149,0 -13.112,0 -2.762,0 -9.751,-1.393 -11.364,1.805 -2.679,5.304 0.127,14.024 1.094,19.446 1.58,8.87 2.682,17.375 1.955,26.402 C 98.667,62.582 93.828,74.029 79.97,77.008 68.158,79.542 50.695,79.524 41.716,70.046 31.707,59.486 32.691,40.873 35.546,27.795 37.044,20.928 41.103,11.485 39.255,4.395 38.152,0.16 29.883,1.76 26.766,1.724 22.368,1.669 13.742,-0.486 11.5,3.723 6.034,13.971 2.801,24.95 1.681,36.504 -0.396,57.938 2.01,79.972 16.382,96.975 c 12.653,14.969 31.89,22.841 51.315,22.841"
       id="path12"
       style="fill:url(#XMLID_3_)"
       inkscape:connector-curvature="0" />
    <path
       d="m 131.271,37.805 c -0.921,-9.047 -2.576,-18.107 -5.783,-26.644 -0.451,-1.198 -3.217,-9.319 -4.482,-9.319 -1.821,0 -3.643,0 -5.464,0 -7.674,0 -19.95,-3.54 -19.67,7.253 0.196,7.574 2.227,15.067 3.336,22.535 0.972,6.537 0.015,6.175 6.214,6.175 8.616,0 17.233,0 25.849,0 m -97.403,0 C 34.747,27.882 38.695,18.454 39.458,8.537 39.986,1.672 36.51,1.845 31.034,1.775 24.963,1.7 18.893,1.625 12.819,1.546 10.922,1.525 6.982,14.191 6.392,15.979 4.064,23.047 2.602,30.396 1.914,37.805 c 10.651,0 21.303,0 31.954,0"
       id="path14"
       style="fill:#e5e5e5"
       inkscape:connector-curvature="0" />
    <linearGradient
       gradientTransform="matrix(0,12.2047,12.2047,0,-7060.1382,3307.916)"
       gradientUnits="userSpaceOnUse"
       id="XMLID_4_"
       x1="-268.13821"
       x2="-266.23651"
       y1="583.93121"
       y2="583.93121">
      <stop
         id="stop17"
         offset="0"
         style="stop-color:#919191" />
      <stop
         id="stop19"
         offset="0.0056"
         style="stop-color:#919191" />
      <stop
         id="stop21"
         offset="1"
         style="stop-color:#BF0D00" />
    </linearGradient>
    <path
       d="m 133.151,52.608 c 0,-10.226 -0.443,-20.501 -2.961,-30.46 -1.778,-7.036 -4.261,-21.252 -12.984,-21.252 -5.15,0 -12.748,-1.488 -17.681,0 -8.931,0.117 -2.733,21.604 -1.993,25.854 2.313,13.259 4.679,35.693 -7.748,45.308 -9.198,7.116 -26.049,6.385 -36.661,3.605 C 39.022,71.969 35.268,58.664 34.685,45.513 34.203,34.58 37.529,24.487 39.56,13.869 40.189,10.58 41.463,5.482 39.337,2.441 37.755,0.184 33.678,0.863 31.339,0.834 27.581,0.784 13.765,-1.594 11.483,1.913 6.005,10.315 3.005,21.695 1.492,31.503 c -2.938,19.016 -2.112,39.8 7.687,56.819 14.843,25.779 46.697,37.219 75.123,30.58 30.927,-7.221 48.849,-35.539 48.849,-66.294 m -1.727,0 c 0,34.868 -23.729,64.123 -59.447,66.145 C 37.28,120.713 6.675,96.957 2.45,62.03 -0.002,41.766 3.344,20.42 13.206,2.498 17.969,2.552 22.73,2.619 27.494,2.677 33.251,2.75 39.301,1.041 38.56,8.881 36.765,27.852 27.852,46.552 37.184,65.198 43.307,77.432 57.155,79.253 69.507,79.039 80.514,78.847 91.865,76.468 96.929,65.583 104.34,49.652 99.668,31.582 97.324,15.162 96.587,9.996 94.994,2.788 101.844,2.788 c 5.683,0 11.365,0 17.051,0 5.063,0 8.566,15.372 9.658,19.741 2.458,9.829 2.871,19.991 2.871,30.079"
       id="path23"
       style="fill:url(#XMLID_4_)"
       inkscape:connector-curvature="0" />
    <path
       d="m 13.842,83.873 c 0,2.83 9.374,10.294 11.391,12.021 10.726,9.183 24.172,14.539 38.305,15.052 14.944,0.539 29.649,-3.849 42.247,-11.796 4.328,-2.729 8.4,-5.854 12.21,-9.27 0.515,-0.461 3.912,-4.399 4.675,-4.179 0.612,0.177 -12.533,14.285 -13.504,15.072 -12.204,9.93 -27.383,15.891 -43.197,15.891 -14.793,0 -28.845,-5.701 -39.604,-15.808 C 22.872,97.576 13.842,89.375 13.842,83.873"
       id="path25"
       style="fill:#ffa3a3"
       inkscape:connector-curvature="0" />
    <path
       d="m 34.692,64.009 c 0.196,2.275 6.695,7.454 8.483,8.884 8.192,6.55 18.279,8.777 28.609,7.948 9.901,-0.796 26.275,-5.766 29.778,-16.91 -3.592,11.425 -14.2,19.624 -25.682,21.923 -15.078,3.015 -39.553,-3 -41.188,-21.845"
       id="path27"
       style="fill:#b20d0d"
       inkscape:connector-curvature="0" />
    <path
       d="m 102.4,8.009 c 2.229,-4.608 16.587,7.405 16.066,9.742 0.063,-0.283 -4.482,-2.673 -5.126,-2.601 -1.48,0.167 6.305,14.689 7.322,14.479 -3.646,0.757 -11.687,-5.402 -13.663,-8.28 -1.714,-2.495 -6.164,-10.088 -4.599,-13.34"
       id="path29"
       style="fill:#ffffff"
       inkscape:connector-curvature="0" />
    <path
       d="M 19.027,34.021 C 17.605,32.25 15.848,30.488 13.76,29.528 9.386,27.516 10.079,32.158 7.441,32.896 9.124,32.425 12.339,5.814 19.403,13.057 c 4.221,4.326 13.22,27.401 -0.376,20.964"
       id="path31"
       style="fill:#ffffff"
       inkscape:connector-curvature="0" />
  </g>
</svg>
